X: 3
T: High Caul Cap
R: polka
M: 2/4
L: 1/8
K: Amaj
|: A>B cc | dB c2 | cB BA/B/ | cB ce |AA/B/ c/B/A/c/ | d/d/B ce | cB ee | A2 A2 :||: f2 e2 | de/d/ c2 | cB BA | c>B c/d/e |fa ea | da c2 | cB e/e/e | A2 A2 :|


Tune 1524	Setting 14924

